X: 1
T: Hommage à Philippe Bruneau
C: Guy Loyer
R: Waltz
O: French-Canadian
M: 3/4
L: 1/8
K: D
Z: ABC transcription by Verge Roller
r: 32
|: dcB | "D" AF DF BF | "D" A3 dcB | "D" AF DF BF | "Em" G3 dc B |
"A" cB Ac BA | "A" c3 cc B | [1 "A" Ac Ac AG | "D" F3 :| [2 "A" Ac AG FE | "D" D4 |]
|:  Ad | "D" fd Ad Ad | "D" fd Ad Ad | "A" ge Ae Ae | "A" ge Ae Ae |
"D" af Af Af | "D" af Af Af | "A" ge cA Bc | [1 "D" d4 :| [2 "D" d3 |]
